cookie-law-info/lite/admin/dist/img/arrow.svg

<svg width="45" height="12" viewBox="0 0 45 12" fill="none" xmlns="http://www.w3.org/2000/svg">
<path
    d="M44.3705 0.824586C42.4933 4.87185 32.0841 10.3963 24.6204 11.4915C16.54 12.6792 11.8889 11.8707 2.31413 7.54776C2.46393 8.17935 2.60513 8.67158 2.69571 9.17099C2.79336 9.71466 2.88799 10.2679 2.89061 10.8163C2.89341 10.9874 2.60005 11.2712 2.41348 11.2996C2.23319 11.3247 1.90032 11.1305 1.83403 10.954C1.24504 9.44196 0.690645 7.9135 0.152049 6.3816C-0.0274834 5.87097 0.153294 5.4876 0.711983 5.33898C2.76687 4.79501 4.81811 4.22257 6.88635 3.71959C7.37261 3.60069 7.9198 3.71855 8.57938 3.72997C8.08479 5.08536 6.94135 4.95188 6.13274 5.32649C5.28013 5.72401 4.35525 5.96737 3.26462 6.34976C5.93049 8.08149 8.60465 9.15686 11.4305 9.81446C21.811 12.2317 31.2652 9.94686 39.9592 4.02561C41.0911 3.25579 42.1352 2.35426 43.228 1.52484C43.5224 1.30129 43.8588 1.13094 44.3672 0.818299L44.3705 0.824586Z"
    fill="black"/>
</svg>

<svg width="45" height="12" fill="none" xmlns="http://www.w3.org/2000/svg"><path d="M44.37.825c-1.877 4.047-12.286 9.571-19.75 10.667-8.08 1.187-12.731.379-22.306-3.944.15.631.291 1.124.382 1.623.097.544.192 1.097.195 1.645.002.171-.291.455-.478.484-.18.025-.513-.17-.579-.346A146.117 146.117 0 0 1 .152 6.382c-.18-.511.001-.894.56-1.043 2.055-.544 4.106-1.116 6.174-1.62.487-.118 1.034 0 1.693.011-.494 1.355-1.638 1.222-2.446 1.596-.853.398-1.778.641-2.868 1.024a25.133 25.133 0 0 0 8.166 3.464c10.38 2.418 19.834.133 28.528-5.788 1.132-.77 2.176-1.672 3.269-2.501.294-.224.63-.394 1.14-.707l.002.007z" fill="#000"/></svg>
